!!!COM: Beethoven, Ludwig van
!!!CDT: 1770///-1827///
!!!ODT: 1825///-1826///
!!!OTL: String Quartet No. 14 in C-sharp Minor, Op. 131
!!!OPS: Op. 131
!!!OMV: Mvmt. 2
!!!OMD: Allegro molto vivace
!!!PDT: 1827///
!!!PPP: Mainz
!!!ODE: Dem Baron von Stutterheim gewidmet
!!!MPD: 1825///-1826///
**kern	**dynam	**kern	**dynam	**kern	**dynam	**kern	**dynam
*staff4	*staff4	*staff3	*staff3	*staff2	*staff2	*staff1	*staff1
*Icello	*Icello	*Iviola	*Iviola	*Ivioln	*Ivioln	*Ivioln	*Ivioln
*clefF4	*clefF4	*clefC3	*clefC3	*clefG2	*clefG2	*clefG2	*clefG2
*k[f#c#]	*k[f#c#]	*k[f#c#]	*k[f#c#]	*k[f#c#]	*k[f#c#]	*k[f#c#]	*k[f#c#]
*D:	*D:	*D:	*D:	*D:	*D:	*D:	*D:
*M6/8	*M6/8	*M6/8	*M6/8	*M6/8	*M6/8	*M6/8	*M6/8
*MM204	*MM204	*MM204	*MM204	*MM204	*MM204	*MM204	*MM204
(4.DD/	pp	(4.D/	pp	(4.d/	pp	(4.d/	pp
=1	=1	=1	=1	=1	=1	=1	=1
4.D\)	.	4.d\	.	4.d/)	.	4.dd\)	.
(4.D\	.	4.F#/	.	(4.d/	.	(4dd\	.
.	.	.	.	.	.	8cc#\)	.
=2	=2	=2	=2	=2	=2	=2	=2
4.D\)	.	4.G/)	.	4.d/)	.	(4cc#\	.
.	.	.	.	.	.	8a#/	.
(4.D\	.	(4.G/	.	(4.d/	.	4b\	.
.	.	.	.	.	.	8cc#\	.
=3	=3	=3	=3	=3	=3	=3	=3
4.D\)	.	4.G/)	.	4.d/)	.	4dd\	.
.	.	.	.	.	.	8cc#\	.
(4.D\	.	(4.G/	.	(4.d/	.	8ee\L	.
.	.	.	.	.	.	8dd\	.
.	.	.	.	.	.	8b\J)	.
=4	=4	=4	=4	=4	=4	=4	=4
4.D\)	.	4.G/)	.	4.d/)	.	(4b\	.
.	.	.	.	.	.	8a/	.
(4.D\	.	(4.F#/	.	(4.d/	.	4dd\	.
.	.	.	.	.	.	8ee\	.
=5	=5	=5	=5	=5	=5	=5	=5
4.D\)	.	4.F#/)	.	4.d/)	.	4ff#\	.
.	.	.	.	.	.	8ee\	.
(4.D\	.	(4.F#/	.	(4.d/	.	4dd\	.
.	.	.	.	.	.	8cc#\)	.
=6	=6	=6	=6	=6	=6	=6	=6
4.D\)	.	4.G/)	.	4.d/)	.	(4cc#\	.
.	.	.	.	.	.	8a#/	.
(4.D\	.	(4.G/	.	(4.d/	.	4b\	.
.	.	.	.	.	.	8cc#\	.
=7	=7	=7	=7	=7	=7	=7	=7
4.D\)	.	4.G/)	.	4.d/)	.	4dd\	.
.	.	.	.	.	.	8cc#\	.
(4.D\	.	(4.G/	.	4.B/	.	8ee\L	.
.	.	.	.	.	.	&(8dd\&)	.
.	.	.	.	.	.	8b\J)	.
=8	=8	=8	=8	=8	=8	=8	=8
4D\)	.	4F#/)	.	(8A/L	.	4a/	.
.	.	.	.	8e/	.	.	.
8r	.	8r	.	8d/J)	.	8r	.
4r	.	(4.d\	.	4r	.	(8f#/L	.
.	.	.	.	.	.	8g/	.
8r	.	.	.	8r	.	8f#/J)	.
=9	=9	=9	=9	=9	=9	=9	=9
(8d\L	.	[4.dd\)	.	(8ff#\L	.	4r	.
8e\	.	.	.	8gg\	.	.	.
8d\J)	.	.	.	8ff#\J)	.	8r	.
4r	.	(4dd\]	.	8f#/L	.	(8aa\L	.
.	.	.	.	8f#/	.	8bb\	.
8r	.	8cc#\)	.	8f#/J	.	8aa\J)	.
=10	=10	=10	=10	=10	=10	=10	=10
(8d\L	.	(4cc#\	.	8g/L	.	4r	.
8e\	.	.	.	8g/	.	.	.
8d\J)	.	8a#\	.	8g/J	.	8r	.
4r	.	4b\	.	4r	.	(8gg\L	.
.	.	.	.	.	.	8aa\	.
8r	.	8cc#\	.	8r	.	8gg\J)	.
=11	=11	=11	=11	=11	=11	=11	=11
8d\L	.	4dd\	.	8g/L 8b/	.	4r	.
8d\	.	.	.	8g/ 8b/	.	.	.
8d\J	.	8cc#\	.	8g/J 8b/	.	8gg\	.
4r	.	8ee\L	.	4r	.	8gg\	.
.	.	8dd\	.	.	.	4gg\	.
8r	.	8b\J)	.	8r	.	.	.
=12	=12	=12	=12	=12	=12	=12	=12
8d\L	.	4b\	.	(8f#/L	.	4r	.
8d\	.	.	.	8g/	.	.	.
8d\J	.	8a\	.	8f#/J)	.	8r	.
4f#\	.	4a\	.	4r	.	(4dd\	.
8e\	.	8g\	.	8r	.	8ee\	.
=13	=13	=13	=13	=13	=13	=13	=13
8d\L	.	8f#\L	.	4r	.	4ff#\	.
8d\	.	8f#\	.	.	.	.	.
8d\J	.	8f#\J	.	8r	.	8ee\	.
4r	.	4r	.	8ff#\L	.	4dd\	.
.	.	.	.	8ff#\	.	.	.
8r	.	8r	.	8ff#\J	.	8cc#\)	.
=14	=14	=14	=14	=14	=14	=14	=14
8d\L	.	8g\L	.	4r	.	(4cc#\	.
8d\	.	8g\	.	.	.	.	.
8d\J	.	8g\J	.	8r	.	8a#/	.
4r	.	4r	.	8gg\L	.	4b\	.
.	.	.	.	8aa\	.	.	.
8r	.	8r	.	8gg\J	.	8cc#\	.
=15	=15	=15	=15	=15	=15	=15	=15
8d\L	.	8g\L 8b\	.	4r	.	4dd\	.
8d\	.	8g\ 8b\	.	.	.	.	.
8d\J	.	8g\J 8b\	.	8r	.	8cc#\	.
4r	.	4r	.	8gg\L	.	8ee\L	.
.	.	.	.	8gg\	.	8dd\	.
8r	.	8r	.	8gg\J	.	8b\J)	.
=16	=16	=16	=16	=16	=16	=16	=16
8d\L	.	8f#\L	.	4r	.	(4b\	.
8d\	.	8f#\	.	.	.	.	.
8d\J	.	8f#\J	.	8r	.	8g#/	.
(4.d\	.	8f#\L	.	8ff#\L	.	4a/	.
.	.	8f#\	.	8a\	.	.	.
.	.	8f#\J	.	8a\J	.	8ff#\)	.
=17	=17	=17	=17	=17	=17	=17	=17
4.c#\	.	8f#\L	.	8a/L	.	[4.ff#\	.
.	.	8f#\	.	8a/	.	.	.
.	.	8f#\J	.	8a/J	.	.	.
4.cn\)	.	8e\L	.	8a/L	.	(4ff#\]	.
.	.	8d#\	.	8a/	.	.	.
.	.	8d#\J	.	8f#/J	.	8a/)	.
=18	=18	=18	=18	=18	=18	=18	=18
4B\	f	8d#/L	f	8f#/L	f	(4a/	f
.	.	8d#/	.	8f#/	.	.	.
8r	.	8A/J	.	8d#/J	.	8f#/	.
4A#\	.	8G/L	.	8e/L	.	4g/	.
.	.	8G/	.	8e/	.	.	.
8r	.	8G/J	.	8e/J	.	8ee\)	.
=19	=19	=19	=19	=19	=19	=19	=19
4An\	.	8G/L	.	8g/L	.	(4ee\	.
.	.	8c#/	.	8g/	.	.	.
8r	.	8dn/J	.	8f#/J	.	8dd\)	.
4AA/	.	8A/L	.	8f#/L	.	(4dd\	.
.	.	8A-/	.	8fn/	.	.	.
8r	.	8G/J	.	8e/J	.	8cc#\)	.
=20	=20	=20	=20	=20	=20	=20	=20
4.B\	p	8G/L	p	8e/L	p	(4g/	p
.	.	8G/	.	8c#/	.	.	.
.	.	8G/J	.	8c#/J	.	8e/	.
(4.B\	.	8F#/L	.	8d/L	.	4f#/	.
.	.	8F#/	.	8d/	.	.	.
.	.	8F#/J	.	8d/J	.	8dd\)	.
=21	=21	=21	=21	=21	=21	=21	=21
4.A#\	.	8F#/L	.	8d/L	.	[4.dd\	.
.	.	8F#/	.	8d/	.	.	.
.	.	8F#/J	.	8d/J	.	.	.
4.An\	.	8F#/L	.	8d/L	.	(4dd\]	.
.	.	8F#/	.	8d/	.	.	.
.	.	8F#/J	.	8d/J	.	8f#/)	.
=22	=22	=22	=22	=22	=22	=22	=22
4A#\)	f	8B/L	f	8b\L	f	(4f#/	f
.	.	8B/	.	8b\	.	.	.
8r	.	8B/J	.	8b\J	.	8d#/	.
4G\	.	8G/L	.	8B/L	.	4e/	.
.	.	8G/	.	8B/	.	.	.
8r	.	8G/J	.	8B/J	.	8b\)	.
=23	=23	=23	=23	=23	=23	=23	=23
4AAn/	.	8G/L	.	8c#/L	.	(4b\	.
.	.	8F#/	.	8d/	.	.	.
8r	.	8F#/J	.	8d/J	.	8a/)	.
4AA/	.	8F#/L	.	8d/L	.	(4a/	.
.	.	8E/	.	8G/	.	.	.
8r	.	8E/J	.	8G/J	.	8c#/)	.
=24	=24	=24	=24	=24	=24	=24	=24
4D\	.	4D/	.	4f#/	.	4r	.
8r	.	8r	.	8r	.	(8d/	p
(4.AA/	.	4r	.	4r	.	4g/	.
.	.	8r	.	8r	.	8f#/	.
=25	=25	=25	=25	=25	=25	=25	=25
4.FF#/	p	2.r	.	2.r	.	4b\	.
.	.	.	.	.	.	8a/	.
4.DD/	.	.	.	.	.	4ee\	.
.	.	.	.	.	.	8dd\	.
=26	=26	=26	=26	=26	=26	=26	=26
4.CC#/)	.	4r	.	4r	.	4ff#\	.
.	.	8r	.	8r	.	8ee\	.
(4.C#/	.	[4.g\	.	(4.ee\	.	4aa\	.
.	.	.	.	.	.	8gg\	.
=27	=27	=27	=27	=27	=27	=27	=27
4.E\	.	(4.g\]	.	4.cc#\	.	4ff#\	.
.	.	.	.	.	.	8gg\	.
4.G\	.	4c#\	.	[4.a/)	.	4ee\	.
.	.	8A/)	.	.	.	8cc#\)	.
=28	=28	=28	=28	=28	=28	=28	=28
4.F#\)	p	(4.A/	p	(4.a/]	p	(4ee\	p
.	.	.	.	.	.	8dd\	.
(4.FF#/	.	4.F#/	.	[4.d/	.	4a/	.
.	.	.	.	.	.	8a#/	.
=29	=29	=29	=29	=29	=29	=29	=29
4.GG/	.	2.E/)	.	4.d/]	.	4cc#\	.
.	.	.	.	.	.	8b\	.
4.AA/)	.	.	.	4.c#/)	.	4e/	.
.	.	.	.	.	.	8an/)	.
=30	=30	=30	=30	=30	=30	=30	=30
4FF#/	.	4D/	.	4r	.	[2.aa\	.
8r	.	8r	.	(8d/	.	.	.
4DD/	.	4r	.	4g/	.	.	.
8r	.	8r	.	8f#/	.	.	.
=31	=31	=31	=31	=31	=31	=31	=31
4r	.	4f#\	.	4b\	.	(4.aa\]	.
8r	.	8r	.	8a/	.	.	.
4DD/	.	4D/	.	4ee\	.	4.ff#\)	.
8r	.	8r	.	8dd\)	.	.	.
=32	=32	=32	=32	=32	=32	=32	=32
4G#\	.	2.r	.	4r	.	[2.bb\	.
8r	.	.	.	(8B/	.	.	.
4GG#/	.	.	.	4f#/	.	.	.
8r	.	.	.	8e/	.	.	.
=33	=33	=33	=33	=33	=33	=33	=33
4r	.	4g#\	.	4cc#\	.	(4.bb\]	.
8r	.	(8G#/	.	8b\	.	.	.
4GG#/	.	4c#\	.	4ee\	.	4.ee\)	.
8r	.	8B/)	.	8dd\)	.	.	.
=34	=34	=34	=34	=34	=34	=34	=34
4A\	.	4r	.	4r	.	[2.ccc#\	.
8r	.	(8C#/	.	(8c#/	.	.	.
4AA/	.	4F#/	.	4f#/	.	.	.
8r	.	8E/	.	8e/	.	.	.
=35	=35	=35	=35	=35	=35	=35	=35
4r	.	4B/	.	4b\	.	(4.ccc#\]	.
8r	.	8A/	.	8a/	.	.	.
4AA/	.	4d\	.	4dd\	.	4.ee\)	.
8r	.	8c#\)	.	8cc#\)	.	.	.
=36	=36	=36	=36	=36	=36	=36	=36
4B\	.	4r	.	4r	.	[2.ddd\	.
8r	.	(8D/	.	(8d/	.	.	.
4BB/	.	4A/	.	4a/	.	.	.
8r	.	8G#/	.	8g#/	.	.	.
=37	=37	=37	=37	=37	=37	=37	=37
4r	.	4c#\	.	4cc#\	.	(4.ddd\]	.
8r	.	8B/	.	8b\	.	.	.
4BB/	.	4e\	.	4ee\	.	4.gg#\)	.
8r	.	8d\	.	8dd\	.	.	.
=38	=38	=38	=38	=38	=38	=38	=38
4.c#\	.	4f#\	.	4ff#\	.	(4.eee\	.
.	.	8e\	.	8ee\	.	.	.
(4.c#\	.	4.g#\)	.	4cc#\	.	4.eee#\	.
.	.	.	.	8b\)	.	.	.
=39	=39	=39	=39	=39	=39	=39	=39
4.d\	.	4f#\	.	(4.b\	.	4.fff#\	.
.	.	(8f#\	.	.	.	.	.
4.e\	.	4gn\	.	4.cc#\	.	4.aa#\	.
.	.	8f#\)	.	.	.	.	.
=40	=40	=40	=40	=40	=40	=40	=40
4.d#\)	.	2.f#\	.	4b\)	.	4.bb\	.
.	.	.	.	(8ff#\	.	.	.
(4.dn\	.	.	.	4gg#\	.	4.bb#\	.
.	.	.	.	8ff#\)	.	.	.
=41	=41	=41	=41	=41	=41	=41	=41
*clefC4	*clefC4	*	*	*	*	*	*
4.c#\	.	(4.g#\	.	4.ffn\	.	4.ccc#\	.
*clefF4	*clefF4	*	*	*	*	*	*
4.E#\	.	4.g#\	.	[4.cc#\	.	4.bb\	.
=42	=42	=42	=42	=42	=42	=42	=42
4.F#\	.	4.f#\	.	2.cc#\_	.	4.aa\	.
[4.C#/	.	4.fn\	.	.	.	4.gg#\	.
=43	=43	=43	=43	=43	=43	=43	=43
4.C#/]	.	4.g#\	.	2.cc#\]	.	4.bb\	.
[4.CC#/)	.	4.f#\)	.	.	.	4.aa\)	.
=44	=44	=44	=44	=44	=44	=44	=44
4CC#/]	.	[2.fn\	p	(4.cc#\	p	[2.gg#\	p
(8CC#/	p	.	.	.	.	.	.
4DD/	.	.	.	4.ee#\)	.	.	.
8CC#/)	.	.	.	.	.	.	.
=45	=45	=45	=45	=45	=45	=45	=45
4r	.	2.f\_	.	[2.ffn\	.	2.gg#\_	.
(8C#/	.	.	.	.	.	.	.
4D\	.	.	.	.	.	.	.
8C#/)	.	.	.	.	.	.	.
=46	=46	=46	=46	=46	=46	=46	=46
4r	.	2.f\_	.	2.ff\_	.	2.gg#\_	.
*clefC4	*clefC4	*	*	*	*	*	*
(8c#\	.	.	.	.	.	.	.
4d\	.	.	.	.	.	.	.
8c#\)	.	.	.	.	.	.	.
=47	=47	=47	=47	=47	=47	=47	=47
4r	.	4f\]	pp	2.ff\_	pp	2.gg#\_	pp
8r	.	(8cc#\	.	.	.	.	.
4r	.	4dd\	.	.	.	.	.
(8c#\	pp	[8cc#\)	.	.	.	.	.
=48	=48	=48	=48	=48	=48	=48	=48
4d\	.	4.cc#\]	.	4.ff\]	.	4.gg#\]	.
8c#\)	.	.	.	.	.	.	.
*clefF4	*clefF4	*	*	*	*	*	*
(4.E\	pp	4r	.	[4.e/	pp	(4.e/	pp
.	.	8r	.	.	.	.	.
=49	=49	=49	=49	=49	=49	=49	=49
[2.e\)	.	4r	.	4.e/]	.	[4.ee\)	.
.	.	8r	.	.	.	.	.
.	.	(8g#\L	pp	(8b/L	.	(4ee\]	.
.	.	8f#\	.	8a/	.	.	.
.	.	8g#\J)	.	8b/J)	.	8dd#\)	.
=50	=50	=50	=50	=50	=50	=50	=50
2.e\_	.	(8a\L	.	4r	.	(4dd#\	.
.	.	8g#\	.	.	.	.	.
.	.	8a\J)	.	8r	.	8b#\	.
.	.	4r	.	(8a/L	.	4cc#\	.
.	.	.	.	8b/	.	.	.
.	.	8r	.	8a/J)	.	8dd#\	.
=51	=51	=51	=51	=51	=51	=51	=51
2.e\]	.	2.r	.	2.a/	.	4ee\	.
.	.	.	.	.	.	8dd#\	.
.	.	.	.	.	.	8ff#\L	.
.	.	.	.	.	.	8ee\	.
.	.	.	.	.	.	8cc#\J)	.
=52	=52	=52	=52	=52	=52	=52	=52
(8e\L	.	2.r	.	4.g#/	.	(4cc#\	.
8d#\	.	.	.	.	.	.	.
8e\J)	.	.	.	.	.	8b\	.
4r	.	.	.	(8g#/L	.	4ee\	.
.	.	.	.	8a/	.	.	.
8r	.	.	.	8g#/J)	.	8ff#\	.
=53	=53	=53	=53	=53	=53	=53	=53
(4.EE/	.	(8G#/L	.	2.r	.	4gg#\	.
.	.	8F#/	.	.	.	.	.
.	.	8G#/J	.	.	.	8ff#\	.
4FF#/	.	4A/	.	.	.	4ee\	.
8GG#/)	.	8B/)	.	.	.	8dd#\)	.
=54	=54	=54	=54	=54	=54	=54	=54
4.AA/	.	4.E/	.	2.r	.	(4dd#\	.
.	.	.	.	.	.	8b#\	.
*clefC4	*clefC4	*	*	*	*	*	*
(4A\	.	(4.e\	.	.	.	4cc#\	.
8B\)	.	.	.	.	.	8dd#\	.
=55	=55	=55	=55	=55	=55	=55	=55
4.c#\	.	4.a\)	.	2.r	.	4ee\	.
.	.	.	.	.	.	8dd#\	.
(4c#\	.	4.a\	.	.	.	8ff#\L	.
.	.	.	.	.	.	&(8ee\&)	.
8d#\)	.	.	.	.	.	8cc#\J)	.
=56	=56	=56	=56	=56	=56	=56	=56
[4.e\	.	4g#\	.	(8g#/L	.	(4cc#\	.
.	.	.	.	8a/	.	.	.
.	.	8r	.	8g#/J)	.	8a#/	.
(4e\]	.	(8B/L	.	(8g#/L	.	4b\	.
.	.	8c#/	.	8a/	.	.	.
8dn\)	.	8B/J)	.	8g#/J)	.	8gg#\)	.
=57	=57	=57	=57	=57	=57	=57	=57
(4d\	.	(4B/	.	(4g#/	.	[4.gg#\	.
8c#\	.	8e\	.	8ee\	.	.	.
4B\	.	4d\	.	4dd\	.	(4gg#\]	.
8A\)	.	8c#\)	.	8cc#\)	.	8aan\)	.
=58	=58	=58	=58	=58	=58	=58	=58
(4A\	.	(4c#\	.	(4cc#\	.	[4.bb\	.
8G#/	.	8b\	.	8bb\	.	.	.
4F#/	.	4a\	.	4aa\	.	(4bb\]	.
8E/)	.	8g#\)	.	8gg#\)	.	8ccc#\)	.
=59	=59	=59	=59	=59	=59	=59	=59
*clefF4	*clefF4	*	*	*	*	*	*
(4E\	.	(4g#\	.	(4gg#\	.	[4.ddd\	.
8D\	.	8f#\	.	8ff#\	.	.	.
4C#/	.	4e\	.	4ee\	.	(4ddd\]	.
8BB/)	.	8d\)	.	8dd\)	.	8eee\)	.
=60	=60	=60	=60	=60	=60	=60	=60
4AA/	f	4c#\	f	4cc#\	f	4ccc#'\	f
8AA'/	.	8E'/	.	8c#'/	.	(8ee\	.
4GG#'/	.	4E'/	.	4B'/	.	4ff#\	.
8AA'/	.	8E'/	.	8c#'/	.	8cc#\	.
=61	=61	=61	=61	=61	=61	=61	=61
4GG#'/	.	4E'/	.	4B'/	.	4ee\)	.
8r	.	8r	.	8a'/	p	(8b\	p
4r	.	4r	.	4g#'/	.	4ff#\	.
8G#'\	p	8r	.	8b'\	.	8dd\	.
=62	=62	=62	=62	=62	=62	=62	=62
4A'\	.	4r	.	4e'/	.	4cc#\)	.
8BB'/	f	8D'/	f	8r	.	(8ff#\	f
4AA#'/	.	4C#'/	.	4r	.	4gg\	.
8BB'/	.	8D'/	.	8r	.	8dd\	.
=63	=63	=63	=63	=63	=63	=63	=63
4AA#'/	.	4C#'/	.	4r	.	4ff#\)	.
8r	.	8r	.	8b'\	p	(8cc#\	p
4r	.	4r	.	4a#'/	.	4gg\	.
8F#'\	p	8r	.	8cc#'\	.	8ee\	.
=64	=64	=64	=64	=64	=64	=64	=64
4B'\	.	4r	.	4f#'/	.	4dd\)	.
8DD'/	f	8F#'/	f	8r	.	(8aa\	f
4CC#'/	.	4E'/	.	4r	.	4bb\	.
8DD'/	.	8F#'/	.	8r	.	8ff#\	.
=65	=65	=65	=65	=65	=65	=65	=65
4CC#'/	.	4E'/	.	4r	.	4aa\)	.
8r	.	8r	.	8dd'\	.	(8ee\	.
4r	.	4r	.	4cc#'\	.	4bb\	.
8A\	.	8c#\	.	8ee'\	.	8gg\)	.
=66	=66	=66	=66	=66	=66	=66	=66
4d'\	.	4f#'\	.	4a'/	.	(4gg\	.
8e'\	.	8g'\	.	8a'/	.	8ff#\	.
4d'\	f	4f#'\	f	4a'/	f	4aa\	f
8r	.	8r	.	8r	.	8ff#\)	.
=67	=67	=67	=67	=67	=67	=67	=67
4r	.	4r	.	4r	.	(4ff#\	.
8d\	.	8f#\	.	8a/	.	8ee\	.
4c#\	.	4e\	.	4a/	.	4aa\	.
8r	.	8r	.	8r	.	8ee\)	.
=68	=68	=68	=68	=68	=68	=68	=68
4r	.	4r	.	4r	.	(4ee\	.
8c#\	.	8e\	.	8a/	.	8dd\	.
4B\	.	4d\	.	4a/	.	4aa\	.
8r	.	8r	.	8r	.	8dd\)	.
=69	=69	=69	=69	=69	=69	=69	=69
4r	.	4r	.	4r	.	(4dd\	.
8B\	.	8d\	.	8a/	.	8cc#\	.
4A\	.	4c#\	.	4a/	.	4aa\	.
8r	.	8A/	.	8a/	.	8cc#\	.
=70	=70	=70	=70	=70	=70	=70	=70
4r	.	4G/	f	4g/	f	4aa\)	f
8A\	f	8r	.	8r	.	(8cc#\	.
4G\	.	4r	.	4r	.	4aa\	.
8r	.	8G/	.	8g/	.	8cc#\	.
=71	=71	=71	=71	=71	=71	=71	=71
4r	.	4F#/	.	4f#/	.	4aa\)	.
8G\	.	8r	.	8r	.	(8cc#\	.
4F#\	.	4r	.	4r	.	4aa\	.
8r	.	8F#/	.	8f#/	.	8dd\	.
=72	=72	=72	=72	=72	=72	=72	=72
4r	.	4E/	.	4e/	.	4aa\)	.
8F#\	.	8A/	.	8d/	.	(8dd\	.
4E\	.	4G/	.	4c#/	.	4aa\	.
8G\	.	8c#\	.	8A/ 8e/	.	8ee\	.
=73	=73	=73	=73	=73	=73	=73	=73
4C#/	.	4E/ 4G/	.	4A/ 4e/	.	4aa\)	.
8E\	.	8G/	.	8c#/	.	(8ee\	.
4D\	.	4F#/	.	4d/	.	4aa\	.
8D\	.	8f#\	.	8a/	.	8ff#\)	.
=74	=74	=74	=74	=74	=74	=74	=74
2.C#/	p	4A/	p	4a/	p	4aa\	p
.	.	8r	.	8r	.	(8A/	.
.	.	4r	.	4r	.	4a/	.
.	.	8r	.	8r	.	8e#/	.
=75	=75	=75	=75	=75	=75	=75	=75
4D\	.	2.d\	.	4r	.	4g/	.
8r	.	.	.	(8a/	.	8f#/)	.
4r	.	.	.	4aa\	.	4r	.
8r	.	.	.	8ff#\)	.	8r	.
=76	=76	=76	=76	=76	=76	=76	=76
*clefC4	*clefC4	*	*	*	*	*	*
(4.d\	.	(4G#/	.	(4ff#\	.	4r	.
.	.	8B/	.	8ee\)	.	(8gg#\	.
4c#\	.	4A/	.	4r	.	4aa\	.
8e\)	.	8G#/	.	8r	.	8bb\	.
=77	=77	=77	=77	=77	=77	=77	=77
4e\	.	4A/)	.	4r	.	4ccc#'\)	.
8r	.	(8D/	.	(8f#/	.	(8ddd\	.
4r	.	4E/	.	4a/	.	4ccc#\	.
8r	.	8D/)	.	8g#/	.	8bb\	.
=78	=78	=78	=78	=78	=78	=78	=78
2.r	.	(2.C#/	.	4a'/)	.	4aa'\)	.
.	.	.	.	8r	.	(8A/	.
.	.	.	.	4r	.	4a/	.
.	.	.	.	8r	.	8e#/	.
=79	=79	=79	=79	=79	=79	=79	=79
(2.d\	.	[2.D/)	.	4r	.	4g/	.
.	.	.	.	(8a/	.	8f#/)	.
.	.	.	.	4aa\	.	4r	.
.	.	.	.	8ff#\	.	8r	.
=80	=80	=80	=80	=80	=80	=80	=80
[2.cn\)	.	2.D/_	.	4gg\	.	4r	.
.	.	.	.	8ff#\)	.	(8a/	.
.	.	.	.	[4.f#/	.	4aa\	.
.	.	.	.	.	.	8ff#\	.
=81	=81	=81	=81	=81	=81	=81	=81
4.c\]	.	4.D/]	.	4f#/]	.	4aa'\)	.
.	.	.	.	8r	.	(8b-\	.
[4.g\	.	[4.D/	.	(4.b-\	.	4bb-\	.
.	.	.	.	.	.	8gg\	.
=82	=82	=82	=82	=82	=82	=82	=82
4.g\]	.	4.D/]	.	4b-\)	.	4bb-'\)	.
.	.	.	.	(8g/	.	(8bn\	.
(4.e#\	.	[4.D/	.	[4.g#/)	.	4bbn\	.
.	.	.	.	.	.	8gg#\	.
=83	=83	=83	=83	=83	=83	=83	=83
4e#\)	.	4D/]	.	4g#/]	.	4bb'\)	.
8r	.	8r	.	8r	.	(8gg#\	.
[4.f#\	.	[4.D/	.	[4.a/	.	4bb\	.
.	.	.	.	.	.	8aa\)	.
=84	=84	=84	=84	=84	=84	=84	=84
(8f#\L]	p	4.D/]	p	(8a/L]	p	[2.aa\	p
8en\	.	.	.	8gn/	.	.	.
8f#\J)	.	.	.	8a/J)	.	.	.
4r	.	(4.d\	.	(8f#/L	.	.	.
.	.	.	.	8e/	.	.	.
8r	.	.	.	8f#/J)	.	.	.
=85	=85	=85	=85	=85	=85	=85	=85
(8d\L	.	([4.dd\)	.	4r	.	2.aa\_	.
8c#\	.	.	.	.	.	.	.
8d\J)	.	.	.	8r	.	.	.
4r	.	4dd\]	.	(8f#/L	.	.	.
.	.	.	.	8e/	.	.	.
8r	.	8cc#\)	.	8f#/J)	.	.	.
=86	=86	=86	=86	=86	=86	=86	=86
(8d\L	.	(4cc#\	p	4r	.	2.aa\_	.
8c#\	.	.	.	.	.	.	.
8d\J)	.	8a#\	.	8r	.	.	.
4r	.	4b\	.	8g/L	.	.	.
.	.	.	.	8g/	.	.	.
8r	.	8cc#\	.	8g/J	.	.	.
=87	=87	=87	=87	=87	=87	=87	=87
(8d\L	.	4dd\	.	8G/L	.	2.aa\_	.
8c#\	.	.	.	8G/	.	.	.
8d\J)	.	8cc#\	.	8G/J	.	.	.
4r	.	8ee\L	.	(8g/L	.	.	.
.	.	8dd\	.	8f#/	.	.	.
8r	.	8b\J)	.	8g/J)	.	.	.
=88	=88	=88	=88	=88	=88	=88	=88
(8d\L	.	4.a\	.	(8f#/L	.	4.aa\]	.
8c#\	.	.	.	8e/	.	.	.
8d\J)	.	.	.	8f#/J)	.	.	.
4r	.	(8F#/L	.	(4.d/	.	(4.dd\	.
.	.	8E/	.	.	.	.	.
8r	.	8F#/J)	.	.	.	.	.
=89	=89	=89	=89	=89	=89	=89	=89
(8F#/L	.	4r	.	([4.dd\)	.	([4.ddd\)	.
8E/	.	.	.	.	.	.	.
8F#/J)	.	8r	.	.	.	.	.
4r	.	8f#\L 8a\	.	4dd\]	.	4ddd\]	.
.	.	8f#\ 8a\	.	.	.	.	.
8r	.	8f#\J 8a\	.	8cc#\)	.	8ccc#\)	.
=90	=90	=90	=90	=90	=90	=90	=90
(8G/L	.	4r	.	(4cc#\	.	(4ccc#\	.
8F#/	.	.	.	.	.	.	.
8G/J)	.	8r	.	8a#/	.	8aa#\	.
4r	.	8G/L 8B/	.	4b\	.	4bb\	.
.	.	8G/ 8B/	.	.	.	.	.
8r	.	8G/J 8B/	.	8cc#\)	.	8ccc#\)	.
=91	=91	=91	=91	=91	=91	=91	=91
(8G/L	.	(8b\L	.	(4dd\	.	(4ddd\	.
8F#/	.	8a#\	.	.	.	.	.
8G/J)	.	8b\J)	.	8cc#\	.	8ccc#\	.
4r	.	8G/L 8B/	.	8ee\L	.	8eee\L	.
.	.	8G/ 8B/	.	8dd\	.	8ddd\	.
8r	.	8G/J 8B/	.	8b\J)	.	8bb\J)	.
=92	=92	=92	=92	=92	=92	=92	=92
(4d\	.	(4F#/	.	4a/	.	4.aa\	.
8c#\	.	8G/	.	(8cc#\	.	.	.
4d\	.	4F#/	.	4dd\	.	4r	.
8e\	.	8C#/	.	8ee\	.	8r	.
=93	=93	=93	=93	=93	=93	=93	=93
4f#\	.	4D/	.	4ff#\	.	4r	.
8e\	.	8E/	.	8ee\	.	8r	.
[4.d\)	.	4E#/	.	4dd\	.	(4ddd\	.
.	.	8F#/)	.	8cc#\)	.	8ccc#\)	.
=94	=94	=94	=94	=94	=94	=94	=94
(4d\]	.	[2.F#/	.	[2.d/ [2.b/	.	(4ccc#\	.
8f#\	.	.	.	.	.	8aa#\	.
[4.g\)	.	.	.	.	.	4bb\	.
.	.	.	.	.	.	8ccc#\	.
=95	=95	=95	=95	=95	=95	=95	=95
(4g\]	.	2.F#/]	.	4.d/] 4.b/]	.	4ddd\	.
8a\	.	.	.	.	.	8ccc#\	.
4b\	.	.	.	4g/	.	8eee\L	.
.	.	.	.	.	.	&(8ddd\&)	.
8g\)	.	.	.	[8d/ [8b/	.	8bb\J)	.
=96	=96	=96	=96	=96	=96	=96	=96
(4g\	.	8D/L	.	4.d/] 4.b/]	.	(4bb\	.
.	.	8d/	.	.	.	.	.
8e#\	.	8d/J	.	.	.	8g#/	.
4f#\	.	8d/L	.	8a/L	.	4a/	.
.	.	8d/	.	8a/	.	.	.
8d\	.	8A/J	.	8f#/J	.	8ff#\)	.
=97	=97	=97	=97	=97	=97	=97	=97
4.c#\	.	8A\L	.	8f#/L	.	([4.ff#\	.
.	.	8f#\	.	8a/	.	.	.
.	.	8f#\J	.	8a/J	.	.	.
4.cn\)	.	8f#\L	.	8a/L	.	4ff#\]	.
.	.	8d#\	.	8a/	.	.	.
.	.	8d#\J	.	8f#/J	.	8a/)	.
=98	=98	=98	=98	=98	=98	=98	=98
*clefF4	*clefF4	*	*	*	*	*	*
4B\	f	8d#\L	f	8f#/L	f	(4a/	f
.	.	8d#\	.	8a/	.	.	.
8r	.	8d#\J	.	8a/J	.	8f#/	.
4B-\	.	8e/L	.	8g/L	.	4g/	.
.	.	8G/	.	8e/	.	.	.
8r	.	8G/J	.	8e/J	.	8ee\)	.
=99	=99	=99	=99	=99	=99	=99	=99
4A\	.	8G/L	.	8e/L	.	(4ee\	.
.	.	8F#/	.	8A/	.	.	.
8r	.	8F#/J	.	8A/J	.	8dd\)	.
4AA/	.	8F#/L	.	8A/L	.	(4dd\	.
.	.	8E/	.	8G/	.	.	.
8r	.	8E/J	.	8g/J	.	8cc#\)	.
=100	=100	=100	=100	=100	=100	=100	=100
4BB/	.	8D/L	p	4g/	p	4dd\	p
.	.	8b\	.	.	.	.	.
8r	.	8b\J	.	(8cc#\	.	8r	.
8r	.	8b\L	.	4dd\	.	(4.g/	.
8r	.	8b\	.	.	.	.	.
8r	.	8g\J	.	8bb\)	.	.	.
=101	=101	=101	=101	=101	=101	=101	=101
2.r	.	8g\L	.	[4.bb\	.	4.f#/	.
.	.	8g\	.	.	.	.	.
.	.	8g\J	.	.	.	.	.
.	.	8g\L	.	(4bb\]	.	4.fn/	.
.	.	8g\	.	.	.	.	.
.	.	8g\J	.	8dd\)	.	.	.
=102	=102	=102	=102	=102	=102	=102	=102
2.r	.	8g\L	.	(4dd\	.	4.e/	.
.	.	8g\	f	.	.	.	.
.	.	8g\J	.	8b\	f	.	.
.	.	8g/L	.	4ccn\	.	4.cn/ 4.e-/	f
.	.	8Cn/	.	.	.	.	.
.	.	8C/J	.	8aa\)	.	.	.
=103	=103	=103	=103	=103	=103	=103	=103
2.r	.	8D/L	.	(4aa\	.	4B/) 4d/	.
.	.	8D/	.	.	.	.	.
.	.	8D/J	.	8gg\)	.	8r	.
.	.	8D/L	.	(4gg\	.	4cn/ 4d/	.
.	.	8D/	.	.	.	.	.
.	.	8D/J	.	8ff#\)	.	8r	.
=104	=104	=104	=104	=104	=104	=104	=104
*clefC4	*clefC4	*	*	*	*	*	*
4r	.	8G/L	p	4gg\	.	4B/ 4d/	.
.	.	8G/	.	.	.	.	.
(8A\	.	8G/J	.	8r	.	8r	.
4B\	.	8G/L	.	4r	.	4r	.
.	.	8G/	.	.	.	.	.
8g\)	.	8E/J	.	8r	.	8r	.
=105	=105	=105	=105	=105	=105	=105	=105
[4.g\	.	8e\L	.	4r	.	2.r	.
.	.	8e\	.	.	.	.	.
.	.	8e\J	.	(8a/	p	.	.
(4g\]	.	8e\L	.	4b\	.	.	.
.	.	8e\	.	.	.	.	.
8B\)	.	8e\J	.	8gg\)	.	.	.
=106	=106	=106	=106	=106	=106	=106	=106
(4B\	f	8e\L	.	4ff#\	.	2.r	.
.	.	8d#\	.	.	.	.	.
8G#/	.	8d#\J	.	8r	.	.	.
4A\	.	8d#\L	.	4r	.	.	.
.	.	8f#\	.	.	.	.	.
8f#\)	.	8d#\J	.	8r	.	.	.
=107	=107	=107	=107	=107	=107	=107	=107
(4f#\	p	8B/L	p	4r	.	2.r	.
.	.	8B/	.	.	.	.	.
8e\)	.	8B/J	.	(8G/	p	.	.
(4e\	.	8B/L	.	4A/	.	.	.
.	.	8B/	.	.	.	.	.
8d#\)	.	8B/J	.	8f#/)	.	.	.
=108	=108	=108	=108	=108	=108	=108	=108
(4e\	.	(4g\	.	8B/L	.	4r	.
.	.	.	.	8B/	.	.	.
8dn\)	.	8f#\)	.	8B/J	.	(8ff#\	.
(4d\	.	(4f#\	.	8B/L	.	4gg\	.
.	.	.	.	8B/	.	.	.
8c#\)	.	8e\)	.	8B/J	.	8eee\)	.
=109	=109	=109	=109	=109	=109	=109	=109
(4d\	.	(4f#\	.	8B/L	.	4r	.
.	.	.	.	8B/	.	.	.
8c#\)	.	8e\)	.	8a#/J	.	(8ee\	.
(4c#\	.	(4e\	.	(4a#/	.	4ff#\	.
8B\)	.	8d\)	.	8b\)	.	8ddd\)	.
=110	=110	=110	=110	=110	=110	=110	=110
(4c#\	.	(4e\	.	(4a#/	.	4r	.
8B\)	.	8d\)	.	8b\)	.	(8dd\	.
(4B\	.	(4d\	.	(4b\	.	4ee\	.
8A#\)	.	8c#\)	.	8cc#\)	.	8ccc#\)	.
=111	=111	=111	=111	=111	=111	=111	=111
(4A#\	f	(4c#\	f	(4cc#\	f	(4ccc#\	f
8B\)	.	8d\)	.	8f#/)	.	8ddd\)	.
(4B\	.	(4d\	.	(4f#/	.	(4ddd\	.
8An\)	.	8B/)	.	8b\)	.	8ddd#\)	.
=112	=112	=112	=112	=112	=112	=112	=112
(4A\	p	(4.B/	p	[2.bb\	p	(4.ddd#\	p
8G/)	.	.	.	.	.	.	.
[4.g\	.	[4.b\)	.	.	.	[4.eee\	.
=113	=113	=113	=113	=113	=113	=113	=113
2.g\]	.	2.b\]	.	2.bb\]	.	4.eee\]	.
.	.	.	.	.	.	4.eee#\)	.
=114	=114	=114	=114	=114	=114	=114	=114
(4.f#\	p	(4.cc#\	p	(4.aa#\	p	[2.fff#\	p
4.e\	.	4.g\	.	4.cc#\	.	.	.
=115	=115	=115	=115	=115	=115	=115	=115
4.d\	.	4.f#\	.	4.ff#\	.	2.fff#\_	.
4.c#\	.	4.e\	.	4.a#/	.	.	.
=116	=116	=116	=116	=116	=116	=116	=116
4.d\	.	4.f#\	.	4.b\	.	2.fff#\_	.
4.c#\	.	4.e\	.	[4.a#/	.	.	.
=117	=117	=117	=117	=117	=117	=117	=117
4.e\	.	4.g\	.	4.a#\] 4.cc#\	.	2.fff#\_	.
4.d\)	.	4.f#\)	.	4.b\)	.	.	.
=118	=118	=118	=118	=118	=118	=118	=118
(4.c#\	p	4.f#\	p	4.a#/	p	(4.fff#\]	p
4.f#\	.	4r	.	4.a#/	.	4.eee\	.
.	.	8r	.	.	.	.	.
=119	=119	=119	=119	=119	=119	=119	=119
4.g\	.	2.r	.	4.b\	.	4.ddd\	.
4.fn\	.	.	.	[4.b\	.	4.ccc#\	.
=120	=120	=120	=120	=120	=120	=120	=120
4.f#\)	.	4r	.	4.b\]	.	4.ddd\	.
.	.	8r	.	.	.	.	.
*clefF4	*clefF4	*	*	*	*	*	*
4.FF#/	.	[4.f#\	.	(4.a#/	.	4.ccc#\	.
=121	=121	=121	=121	=121	=121	=121	=121
4.BB/	.	(4.f#\]	.	4.b\)	.	4.eee\	.
4.FFn/	.	4.g#\)	.	4.b\	.	4.ddd\)	.
=122	=122	=122	=122	=122	=122	=122	=122
4FF#/	.	[2.a#\	.	[2.ff#\	.	[2.ccc#\	.
(8FF#/	.	.	.	.	.	.	.
4GG/	.	.	.	.	.	.	.
8FF#/)	.	.	.	.	.	.	.
=123	=123	=123	=123	=123	=123	=123	=123
4r	.	2.a#\_	.	2.ff#\_	.	2.ccc#\_	.
(8F#\	.	.	.	.	.	.	.
4G\	.	.	.	.	.	.	.
8F#\)	.	.	.	.	.	.	.
=124	=124	=124	=124	=124	=124	=124	=124
4r	.	4a#\]	p	4ff#\]	p	2.ccc#\_	p
8r	.	(8a#\	.	(8ff#\	.	.	.
4r	.	4b\	.	4gg\	.	.	.
*clefC4	*clefC4	*	*	*	*	*	*
(8f#\	.	8a#\)	.	8ff#\)	.	.	.
=125	=125	=125	=125	=125	=125	=125	=125
4g\	.	4r	.	4r	.	2.ccc#\_	pp
8f#\)	.	(8a#\	pp	(8ff#\	pp	.	.
4r	.	4b\	.	4gg\	.	.	.
(8f#\	pp	[8a#\)	.	[8ff#\)	.	.	.
=126	=126	=126	=126	=126	=126	=126	=126
4g\	.	4.a#;\]	.	4.ff#;\]	.	4.ccc#;\]	.
8f#;\)	.	.	.	.	.	.	.
*clefF4	*clefF4	*	*	*	*	*	*
[4.B\	pp	4r	.	4r	.	(4.B/	pp
.	.	8r	.	8r	.	.	.
=127	=127	=127	=127	=127	=127	=127	=127
2.B\_	.	4r	.	4r	.	[2.b\)	.
.	.	8r	.	8r	.	.	.
.	.	4.d#\	pp	(4.f#/	pp	.	.
=128	=128	=128	=128	=128	=128	=128	=128
4.B\]	.	[2.e\	.	4.g/)	.	2.b\_	.
(4.E\	.	.	.	(4.G/	.	.	.
=129	=129	=129	=129	=129	=129	=129	=129
4.e\)	.	2.e\_	.	[2.g/)	.	4.b\]	.
(4.A\	.	.	.	.	.	(4.c#/	.
=130	=130	=130	=130	=130	=130	=130	=130
*clefC4	*clefC4	*	*	*	*	*	*
4a\	.	4e\]	.	4g/]	.	[4.cc#\)	.
8g\	.	(8b\	.	(8bb\	.	.	.
4f#\	.	4a\	.	4aa\	.	4cc#\]	.
8e\)	.	8g\)	.	8gg\)	.	8dd\	.
=131	=131	=131	=131	=131	=131	=131	=131
(4e\	.	(4g\	.	(4gg\	.	[4.ee\	.
8d\	.	8f#\	.	8ff#\	.	.	.
4c#\	.	4e\	.	4ee\	.	(4ee\]	.
8B\)	.	8d\)	.	8dd\)	.	8ff#\)	.
=132	=132	=132	=132	=132	=132	=132	=132
(4A\	.	(4c#\	.	(4cc#\	.	[4.gg\	.
8G/	.	8B/	.	8b\	.	.	.
4F#/	.	4A/	.	4a/	.	(4gg\]	.
8E/)	.	8c#\)	.	8cc#\)	.	8aa\)	.
=133	=133	=133	=133	=133	=133	=133	=133
4D/	f	4d\	f	4.dd\	f	4ff#\	f
*clefF4	*clefF4	*	*	*	*	*	*
8DD'/	.	8F#'/	.	.	.	(8aa\	.
4CC#'/	.	4E'/	.	4r	.	4bb\	.
8DD'/	.	8F#'/	.	8r	.	8ff#\	.
=134	=134	=134	=134	=134	=134	=134	=134
8CC#'/	.	8E'/	.	4r	.	4aa\)	.
8r	.	8r	.	.	.	.	.
8r	.	8r	.	8dd'\	p	(8ee\	p
4r	.	4r	.	4cc#'\	.	4bb\	.
8c#'\	p	8e'\	p	8ee'\	.	8gg\	.
=135	=135	=135	=135	=135	=135	=135	=135
4d'\	.	4f#'\	.	8a'/	.	4ff#\)	.
.	.	.	.	8r	.	.	.
8EE'/	f	8G'/	f	8r	.	(8bb\	f
4DD#'/	.	4F#'/	.	4r	.	4cccn\	.
8EE'/	.	8G'/	.	8r	.	8gg\	.
=136	=136	=136	=136	=136	=136	=136	=136
8DD#'/	.	8F#'/	.	4r	.	4bb\)	.
8r	.	8r	.	.	.	.	.
8r	.	8r	.	8ee'\	p	(8ff#\	p
4r	.	4r	.	4dd#'\	.	4cccn\	.
8d#'\	p	8f#'\	p	8ff#'\	.	8aa\	.
=137	=137	=137	=137	=137	=137	=137	=137
4e'\	.	4g'\	.	8b'\	.	4gg\)	.
.	.	.	.	8r	.	.	.
8GG'/	.	8B'/	.	8r	.	(8ddd\	f
4FF#'/	f	4A'/	f	4r	.	4eee\	.
8GG'/	.	8B'/	.	8r	.	8bb\	.
=138	=138	=138	=138	=138	=138	=138	=138
4FF#'/	.	4A'/	.	4r	.	4ddd\)	.
*clefC4	*clefC4	*	*	*	*	*	*
8g\	p	8a\	p	8dd\	p	(8aa\	p
4f#\	.	4a\	.	4dd\	.	4eee\	.
8f#\	.	8a\	.	8dd\	.	8cccn\)	.
=139	=139	=139	=139	=139	=139	=139	=139
4g'\	.	4b'\	.	4dd'\	.	(4cccn\	.
8a'\	.	8ccn'\	.	8dd'\	.	8bb\	.
4g'\	f	4b'\	f	4dd'\	f	4ddd\	f
8r	.	8r	.	8r	.	8bb\)	.
=140	=140	=140	=140	=140	=140	=140	=140
4r	.	4r	.	4r	.	(4bb\	.
8g\	.	8b\	.	8dd\	.	8aa\	.
4f#\	.	4a\	.	4dd\	.	4ddd\	.
8r	.	8r	.	8r	.	8aa\)	.
=141	=141	=141	=141	=141	=141	=141	=141
4r	.	4r	.	4r	.	(4aa\	.
8f#\	.	8a\	.	8dd\	.	8gg\	.
4e\	.	4g\	.	4dd\	.	4ddd\	.
8r	.	8r	.	8r	.	8gg\)	.
=142	=142	=142	=142	=142	=142	=142	=142
4r	.	4r	.	4r	.	(4gg\	.
8e\	.	8g\	.	8dd\	.	8ff#\	.
4d\	.	4f#\	.	4dd\	.	4ddd\	.
8r	.	8d\	.	8dd\	.	8ff#\)	.
=143	=143	=143	=143	=143	=143	=143	=143
*clefF4	*clefF4	*	*	*	*	*	*
4r	.	4cn\	f	4ccn\	f	(4ddd\	f
8D\	f	8D/	.	8r	.	8ff#\	.
4Cn/	.	4A/	.	4r	.	4ddd\	.
8r	.	8c\	.	8cc\	.	8ff#\)	.
=144	=144	=144	=144	=144	=144	=144	=144
4r	.	4B/	.	4b\	.	(4ddd\	.
8Cn/	.	8D/	.	8r	.	8gg\	.
4BB/	.	4G/	.	4r	.	4ddd\	.
8r	.	8B/	.	8b\	.	8gg\)	.
=145	=145	=145	=145	=145	=145	=145	=145
4r	.	4A/	.	4a/	.	(4ddd\	.
8BB/	.	8G/	.	8g/	.	8aa\	.
4AA/	.	4F#/	.	4f#/	.	4ddd\	.
8AA/	.	8D/ 8cn/	.	8f#/	.	8aa\)	.
=146	=146	=146	=146	=146	=146	=146	=146
4GG/	.	4D/ 4B/	.	4g/	.	(4ddd\	.
8AA/	.	8D/ 8cn/	.	8g/	.	8bb\	.
4GG/	.	4D/ 4B/	.	4g/	.	4ddd\	.
8G\	.	8d\	.	8b\	.	8bb\)	.
=147	=147	=147	=147	=147	=147	=147	=147
(2.F#\	p	4d\	p	4dd\	p	4ddd\	p
.	.	8r	.	8r	.	(8d/	.
.	.	4r	.	(4.d/	.	4dd\	.
.	.	8r	.	.	.	8a#/	.
=148	=148	=148	=148	=148	=148	=148	=148
4G\)	.	[2.G\ [2.g\	.	4d/)	.	4ccn\	.
8r	.	.	.	(8dd\	.	8b\)	.
4r	.	.	.	4ddd\	.	4r	.
8r	.	.	.	8bb\)	.	8r	.
=149	=149	=149	=149	=149	=149	=149	=149
(4c#\	.	4G\] 4g\]	.	(4bb\	.	4r	.
8e\	.	(8g\	.	8aa\)	.	(8cc#\	.
4d\	.	4f#\	.	4r	.	4dd\	.
8c#\	.	8e\	.	8r	.	8ee\	.
=150	=150	=150	=150	=150	=150	=150	=150
4d\)	.	4a'\)	.	4r	.	4ff#'\)	.
8r	.	(8G/	.	(8b\	.	(8gg\	.
4r	.	4A/	.	4d/	.	4ff#\	.
8r	.	8G/)	.	8c#/	.	8ee\	.
=151	=151	=151	=151	=151	=151	=151	=151
2.r	.	2.F#/	.	4d'/)	.	4dd'\)	.
.	.	.	.	8r	.	(8d/	.
.	.	.	.	4r	.	4dd\	.
.	.	.	.	8r	.	8a#/	.
=152	=152	=152	=152	=152	=152	=152	=152
(2.g\	.	2.G/	.	4r	.	4ccn\	.
.	.	.	.	(8dd\	.	8b\)	.
.	.	.	.	4ddd\	.	4r	.
.	.	.	.	8bb\	.	8r	.
=153	=153	=153	=153	=153	=153	=153	=153
[2.fn\)	.	[2.G/	.	4cccn\	.	4r	.
.	.	.	.	8bb\)	.	(8dd\	.
.	.	.	.	[4.g/	.	4ddd\	.
.	.	.	.	.	.	8bb\	.
=154	=154	=154	=154	=154	=154	=154	=154
4f\]	.	4G/]	.	4g/]	.	4ddd'\)	.
8r	.	8r	.	8r	.	(8ee-\	.
[4.cn\	.	[4.G/	.	[4.g/	.	4eee-\	.
.	.	.	.	.	.	8cccn\	.
=155	=155	=155	=155	=155	=155	=155	=155
4c\]	.	4G/]	.	4g/]	.	4eee-'\)	.
8r	.	8r	.	8r	.	(8een\	.
(4.cn\	.	[4.G/	.	[4.g/	.	4eeen\	.
.	.	.	.	.	.	8cccn\	.
=156	=156	=156	=156	=156	=156	=156	=156
4A#\)	.	4G/]	.	4g/]	.	4eee'\)	.
8r	.	8r	.	8r	.	(8ccc#\	p
4.c#\	.	[4.G/	.	(4.g/	.	4eee\	.
.	.	.	.	.	.	8ddd\)	.
=157	=157	=157	=157	=157	=157	=157	=157
4.B\	p	4.G/]	p	[2.gg\)	p	[2.ddd\	.
(4.G\	.	[4.b\	.	.	.	.	.
=158	=158	=158	=158	=158	=158	=158	=158
[4.g\)	.	2.b\]	.	2.gg\_	.	2.ddd\]	.
(4g\]	.	.	.	.	.	.	.
8f#\)	.	.	.	.	.	.	.
=159	=159	=159	=159	=159	=159	=159	=159
(4f#\	.	[2.ccn\	.	2.gg\_	.	[2.cccn\	.
8d#\	.	.	.	.	.	.	.
4e\	.	.	.	.	.	.	.
8f#\	.	.	.	.	.	.	.
=160	=160	=160	=160	=160	=160	=160	=160
4g\	.	2.cc\]	.	2.gg\_	.	2.ccc\]	.
8f#\	.	.	.	.	.	.	.
8a\L	.	.	.	.	.	.	.
8g\	.	.	.	.	.	.	.
8e\J)	.	.	.	.	.	.	.
=161	=161	=161	=161	=161	=161	=161	=161
(8d\L	.	4g\ 4b\	.	4gg\]	.	4bb\	.
8c#\	.	.	.	.	.	.	.
8d\J)	.	8r	.	8r	.	8r	.
4r	.	(8f#\L	.	(8a/L	.	(4.dd\	.
.	.	8e\	.	8g/	.	.	.
8r	.	8f#\J)	.	8a/J)	.	.	.
=162	=162	=162	=162	=162	=162	=162	=162
(8d\L	.	4r	.	4r	.	([4.ddd\)	.
8c#\	.	.	.	.	.	.	.
8d\J)	.	8r	.	8r	.	.	.
4r	.	(8f#\L	.	(8a/L	.	4ddd\]	.
.	.	8e\	.	8g/	.	.	.
8r	.	8f#\J)	.	8a/J)	.	8ccc#\)	.
=163	=163	=163	=163	=163	=163	=163	=163
(8d\L	p	4r	.	4r	.	(4ccc#\	p
8c#\	.	.	.	.	.	.	.
8d\J)	.	8r	.	8r	.	8aa#\	.
4r	.	8G/L	p	(8B/L	.	4bb\	.
.	.	8G/	.	8A/	p	.	.
8r	.	8G/J	.	8B/J)	.	8ccc#\	.
=164	=164	=164	=164	=164	=164	=164	=164
(8d\L	.	4r	.	4r	.	4ddd\	.
8c#\	.	.	.	.	.	.	.
8d\J)	.	8r	.	8r	.	8ccc#\	.
4r	.	8g\L	.	8b\L	.	8eee\L	.
.	.	8g\	.	8b\	.	8ddd\	.
8r	.	8g\J	.	8b\J	.	8bb\J)	.
=165	=165	=165	=165	=165	=165	=165	=165
8D\L	.	8F#/L	.	4r	.	8bb\L	.
8D\	.	8F#/	.	.	.	(8g#\	.
8D\J	.	8F#/J	.	8r	.	8a\J	.
4r	.	4r	.	8f#/L	.	8ee\L	.
.	.	.	.	8f#/	.	8cc#\	.
8r	.	8r	.	8f#/J	.	8dd\J	.
=166	=166	=166	=166	=166	=166	=166	=166
(8D/L	.	8F#/L	.	4r	.	8ff#\L	.
8C#/	.	8F#/	.	.	.	8ee\	.
8D/J)	.	8F#/J	.	8r	.	8dd\J	.
4r	.	4r	.	8f#/L	.	8cc#\L	.
.	.	.	.	8f#/	.	8b\	.
8r	.	8r	.	8f#/J	.	8a#\J)	.
=167	=167	=167	=167	=167	=167	=167	=167
8GG/L	.	4r	.	4r	.	(8cc#\L	.
8GG/	.	.	.	.	.	8a#\	.
8GG/J	.	8r	.	8r	.	8b\J)	.
4r	.	8G/L	.	8B/L	.	(8b\L	.
.	.	8G/	.	8B/	.	8ccn\	.
8r	.	8G/J	.	8B/J	.	8cc#\J)	.
=168	=168	=168	=168	=168	=168	=168	=168
8G\L	.	8B/L	.	4r	.	(8cc#\L	.
8G\	.	8B/	.	.	.	8dd\	.
8G\J	.	8B/J	.	8r	.	8dd#\J)	.
4r	.	8g\L	.	8b\L	.	(8dd#\L	.
.	.	8g\	.	8b\	.	8ee\	.
8r	.	8g\J	.	8b\J	.	8ffn\J)	.
=169	=169	=169	=169	=169	=169	=169	=169
4F#\	f	4c#\	f	4a#/	f	[2.ff#\	f
(8F#\	p	8r	.	8r	.	.	.
4B\	.	4r	.	4r	.	.	.
8A#\	.	8r	.	8r	.	.	.
=170	=170	=170	=170	=170	=170	=170	=170
4d\	.	2.r	.	2.r	.	2.ff#\_	p
8c#\	.	.	.	.	.	.	.
4f#\	.	.	.	.	.	.	.
8e\)	.	.	.	.	.	.	.
=171	=171	=171	=171	=171	=171	=171	=171
4d\	.	4r	.	4r	.	2.ff#\_	.
8r	.	(8F#/	p	(8f#/	p	.	.
4r	.	4c#\	.	4cc#\	.	.	.
(8d\	.	8B/	.	8b\	.	.	.
=172	=172	=172	=172	=172	=172	=172	=172
4c#\	.	4e\	.	4ee\	.	2.ff#\]	.
8B\	.	8d\	.	8dd\	.	.	.
4e\	.	4g\	.	4gg\	.	.	.
8d\	.	8f#\	.	8ff#\	.	.	.
=173	=173	=173	=173	=173	=173	=173	=173
4c#\)	.	4e\)	.	4ee\)	.	[2.aa\	.
(8A\	.	(8c#\	.	8r	.	.	.
4d\	.	4f#\	.	4r	.	.	.
8c#\	.	8e\	.	(8a/	.	.	.
=174	=174	=174	=174	=174	=174	=174	=174
4f#\	.	4d\	.	4dd\	.	2.aa\_	.
8e\	.	8c#\	.	8cc#\	.	.	.
4a\	.	4f#\	.	4ff#\	.	.	.
8g\	.	8e\	.	8ee\	.	.	.
=175	=175	=175	=175	=175	=175	=175	=175
4f#\)	.	4d\)	.	4dd\)	.	4aa\]	.
(8DD/	.	(8D/	.	(8d/	.	(8d/	.
4GG/	.	4G/	.	4g/	.	4g/	.
8FF#/	.	8F#/	.	8f#/	.	8f#/	.
=176	=176	=176	=176	=176	=176	=176	=176
4BB/	.	4B/	.	4b\	.	4b\	.
8AA/	.	8A/	.	8a/	.	8a/	.
4E\	.	4e\	.	4e/	.	4ee\	.
8D\	.	8d\	.	8d/	.	8dd\	.
=177	=177	=177	=177	=177	=177	=177	=177
4F#\	.	4f#\	.	4f#/	.	4ff#\	.
8E\	.	8e\	.	8e/	.	8ee\	.
4A\	.	4a\	.	4a/	.	4aa\	.
8G\	.	8g\	.	8g/	.	8gg\	.
=178	=178	=178	=178	=178	=178	=178	=178
4F#\	.	4f#\	.	4f#/	.	4ff#\	.
8G\	.	8g\	.	8g/	.	8gg\	.
4E\	.	4e\	.	4e/	.	4ee\	.
8C#/	.	8c#\	.	8c#/	.	8cc#\	.
=179	=179	=179	=179	=179	=179	=179	=179
4E\	.	4e\	.	4e/	.	4ee\	.
8D\	.	8d\	.	8d/	.	8dd\	.
4AA/	.	4A/	.	4A/	.	4a/	.
8AA#/	.	8A#/	.	8A#/	.	8a#/	.
=180	=180	=180	=180	=180	=180	=180	=180
4C#/	.	4c#\	.	4c#/	.	4cc#\	.
8BB/)	.	8B/)	.	8B/)	.	8b\)	.
(4EE/	.	(4E/	.	(4e/	.	(4e/	.
8AAn/	f	8An/	f	8an/	f	8an/	f
=181	=181	=181	=181	=181	=181	=181	=181
4GG/	.	4G/	.	4g/	.	4g/	.
8FF#/	.	8F#/	.	8f#/	.	8f#/	.
4DD/	.	4D/	.	4d/	.	4d/	.
8DD#/	.	8D#/	.	8d#/	.	8d#/	.
=182	=182	=182	=182	=182	=182	=182	=182
4FF#/	.	4F#/	.	4f#/	.	4f#/	.
8EE/)	.	8E/)	.	8e/)	.	8e/)	.
(4B-\	ff	(4G/	ff	(4G/	ff	(4G/	ff
8G\	.	8E/	.	8B-/	.	8B-/	.
=183	=183	=183	=183	=183	=183	=183	=183
4E\	.	4C#/	.	4c#/	.	4c#/	.
8C#/	.	8E/	.	8e/	.	8e/	.
4BB-/	.	4G/	.	4G/	.	4g/	.
8GG/	.	8B-/	.	8B-/	.	8b-\	.
=184	=184	=184	=184	=184	=184	=184	=184
4EE/	.	4e\	.	4c#/	.	4cc#\	.
8DD/	.	8g\	.	8e/	.	8ee\	.
4CC#/)	.	4ee\)	.	4g/)	.	4gg\)	.
*clefC4	*clefC4	*	*	*	*	*	*
(8e\	ff	(8g\	ff	(8a/	ff	(8ccc#\	ff
=185	=185	=185	=185	=185	=185	=185	=185
8d\L)	.	8f#\L)	.	8ff#\L)	.	8ddd\L)	.
8r	.	8r	.	8r	.	8r	.
(8c#\J	.	(8a#\J	.	(8ee\J	.	(8ff#\J	.
8B\L)	.	8f#\L)	.	8dd\L)	.	8bb\L)	.
8r	.	8r	.	8r	.	8r	.
(8A\J	.	(8f#\J	.	(8ccn\J	.	(8dd\J	.
=186	=186	=186	=186	=186	=186	=186	=186
8G/L)	.	8d\L)	.	8b/L)	.	8gg\L)	.
8r	.	8r	.	8r	.	8r	.
(8F#/J	.	(8d#\J	.	(8a/J	.	(8b\J	.
8E/L)	.	8B\L)	.	8g\L)	.	8ee/L)	.
8r	.	8r	.	8r	.	8r	.
*clefF4	*clefF4	*	*	*	*	*	*
(8BB-/J	.	[8e\J	.	[8g\J [8ee\	.	[8G/J	.
=187	=187	=187	=187	=187	=187	=187	=187
4.AA/)	.	4.e\]	.	4.g\] 4.ee\]	.	(4G/]	.
.	.	.	.	.	.	8a/)	.
[4.AA/	p	[4.E/	p	[4.c#/	p	[4.g/	p
=188	=188	=188	=188	=188	=188	=188	=188
4.AA/_	.	4.E/_	.	4.c#/_	.	4.g/_	.
4AA/]	.	4E/]	.	4c#/]	.	4g/]	.
*clefC4	*clefC4	*	*	*	*	*	*
(8e\	ff	(8g\	ff	(8a/	ff	(8ccc#\	ff
=189	=189	=189	=189	=189	=189	=189	=189
8d\L)	.	8f#\L)	.	8ff#\L)	.	8ddd\L)	.
8r	.	8r	.	8r	.	8r	.
(8c#\J	.	(8e\J	.	(8a#\J	.	(8ff#\J	.
8B\L)	.	8d\L)	.	8dd/L)	.	8bb\L)	.
8r	.	8r	.	8r	.	8r	.
(8A\J	.	(8cn\J	.	(8f#/J	.	(8dd\J	.
=190	=190	=190	=190	=190	=190	=190	=190
8G/L)	.	8B/L)	.	8b/L)	.	8gg\L)	.
8r	.	8r	.	8r	.	8r	.
(8F#/J	.	(8A/J	.	(8d#/J	.	(8b\J	.
8E/L)	.	8G/L)	.	8g\L)	.	8ee/L)	.
8r	.	8r	.	8r	.	8r	.
*clefF4	*clefF4	*	*	*	*	*	*
(8BB-/J	.	(8D/J	.	[8g\J [8ee\	.	[8G/J	.
=191	=191	=191	=191	=191	=191	=191	=191
(4.AA/)	.	4.C#/)	.	4.g\] 4.ee\]	.	(4G/]	.
.	.	.	.	.	.	8a/)	.
[4.AA/)	.	[4.c#\	.	[4.e/	.	(4g/	.
.	.	.	.	.	.	8aa\)	p
=192	=192	=192	=192	=192	=192	=192	=192
2.AA/_	p	2.c#\_	p	2.e/_	p	[2.gg\	.
=193	=193	=193	=193	=193	=193	=193	=193
(4.AA/]	.	(4.c#\]	.	(4.e/]	.	(4.gg\]	.
4D\)	.	4d\)	.	4f#/)	.	4ff#\)	.
8r	.	8r	.	8r	.	8r	.
=194	=194	=194	=194	=194	=194	=194	=194
4r	.	4r	.	4r	.	4r	.
8r	.	8r	.	8r	.	8r	.
[4.AA/	.	[4.E/	.	[4.c#/	.	[4.g/	.
=195	=195	=195	=195	=195	=195	=195	=195
(4.AA/]	.	(4.E/]	.	(4.c#/]	.	(4.g/]	.
4D\)	.	4F#/)	.	4d/)	.	4f#/)	.
8r	.	8r	.	8r	.	8r	.
=196	=196	=196	=196	=196	=196	=196	=196
2.r	.	2.r	.	2.r	.	2.r	.
=197	=197	=197	=197	=197	=197	=197	=197
4D\	pp	4F#/	pp	4d/	pp	4f#/	pp
8r	.	8r	.	8r	.	8r	.
4r	.	4r	.	4r	.	4r	.
8r	.	8r	.	8r	.	8r	.
=198	=198	=198	=198	=198	=198	=198	=198
4D\	.	4F#/	.	4d/	.	4f#/	.
8r	.	8r	.	8r	.	8r	.
4r	.	4r	.	4r	.	4r	.
8r	.	8r	.	8r	.	8r	.
==	==	==	==	==	==	==	==
*-	*-	*-	*-	*-	*-	*-	*-
